;FLAVOR:UltiGCode
;TIME:14382     
;MATERIAL:28480     
;MATERIAL2:0         

;Layer count: 48
;LAYER:0
M107
G0 F9000 X88.05 Y108.25 Z0.30
G0 X88.05 Y108.25
;TYPE:SKIRT
G11
G1 F1200 X88.05 Y110.05 E0.27120
G1 X87.97 Y110.65 E0.36134
G1 X87.90 Y111.12 E0.43205
G1 X87.62 Y111.80 E0.54328
G1 X87.45 Y112.23 E0.61239
G1 X86.96 Y112.86 E0.73186
G1 X86.68 Y113.23 E0.80236
G1 X86.27 Y113.54 E0.87901
G1 X85.67 Y114.00 E0.99323
G1 X85.22 Y114.18 E1.06504
G1 X84.54 Y114.46 E1.17532
G1 X84.08 Y114.52 E1.24567
G1 X83.51 Y114.60 E1.33070
G1 X80.57 Y114.60 E1.77230
G1 X80.57 Y120.98 E2.73035
G1 X93.37 Y120.98 E4.65035
G1 X93.37 Y110.38 E6.24035
G1 X108.75 Y110.38 E8.54675
G1 X108.74 Y110.34 E8.55250
G1 X108.70 Y110.09 E8.59045
G1 X108.70 Y108.25 E8.86780
G1 X88.05 Y108.25 E11.96530
G0 F9000 X66.13 Y114.60
G1 F1200 X60.90 Y114.60 E12.74905
G1 X60.90 Y51.59 E22.20055
G1 X60.95 Y50.52 E22.36090
G1 X60.96 Y50.27 E22.39874
G1 X61.11 Y49.13 E22.57045
G1 X61.14 Y48.88 E22.60874
G1 X61.39 Y47.77 E22.77837
G1 X61.44 Y47.53 E22.81585
G1 X61.79 Y46.44 E22.98806
G1 X61.86 Y46.19 E23.02601
G1 X62.30 Y45.15 E23.19630
G1 X62.40 Y44.91 E23.23449
G1 X62.92 Y43.90 E23.40544
G1 X63.04 Y43.67 E23.44341
G1 X63.65 Y42.72 E23.61344
G1 X63.78 Y42.51 E23.65147
G1 X64.48 Y41.60 E23.82296
G1 X64.64 Y41.40 E23.86083
G1 X65.40 Y40.56 E24.03069
G1 X65.57 Y40.38 E24.06892
G1 X65.76 Y40.20 E24.10671
G1 X66.60 Y39.44 E24.27712
G1 X66.80 Y39.28 E24.31477
G1 X67.70 Y38.59 E24.48668
G1 X67.91 Y38.45 E24.52397
G1 X67.91 Y38.45 E24.52412
G1 X68.88 Y37.84 E24.69501
G1 X69.10 Y37.72 E24.73305
G1 X70.11 Y37.20 E24.90441
G1 X70.35 Y37.10 E24.94282
G1 X71.40 Y36.66 E25.11297
G1 X71.64 Y36.59 E25.15040
G1 X72.72 Y36.25 E25.32123
G1 X72.97 Y36.19 E25.35919
G1 X74.09 Y35.94 E25.53096
G1 X74.34 Y35.91 E25.56953
G1 X74.34 Y35.91 E25.56968
G1 X75.47 Y35.76 E25.74109
G1 X75.72 Y35.75 E25.77802
G1 X76.78 Y35.71 E25.93703
G1 X153.11 Y35.71 E37.38683
G1 X153.29 Y35.71 E37.41415
G1 X154.44 Y35.76 E37.58591
G1 X154.69 Y35.80 E37.62357
G1 X155.82 Y35.95 E37.79543
G1 X156.07 Y36.00 E37.83353
G1 X157.18 Y36.25 E38.00407
G1 X157.42 Y36.32 E38.04183
G1 X158.51 Y36.66 E38.21248
G1 X158.74 Y36.76 E38.25028
G1 X159.79 Y37.20 E38.42176
G1 X160.02 Y37.31 E38.45960
G1 X161.03 Y37.84 E38.63015
G1 X161.24 Y37.97 E38.66789
G1 X162.21 Y38.59 E38.83975
G1 X162.40 Y38.74 E38.87707
G1 X163.31 Y39.44 E39.04769
G1 X163.49 Y39.60 E39.08539
G1 X164.33 Y40.38 E39.25674
G1 X165.10 Y41.22 E39.42788
G1 X165.27 Y41.40 E39.46568
G1 X165.96 Y42.30 E39.63471
G1 X166.12 Y42.50 E39.67353
G1 X166.73 Y43.46 E39.84443
G1 X166.87 Y43.68 E39.88275
G1 X167.39 Y44.68 E40.05195
G1 X167.51 Y44.91 E40.09094
G1 X167.94 Y45.96 E40.26122
G1 X168.04 Y46.20 E40.30008
G1 X168.38 Y47.27 E40.46883
G1 X168.46 Y47.52 E40.50801
G1 X168.71 Y48.64 E40.68026
G1 X168.76 Y48.89 E40.71866
G1 X168.91 Y50.02 E40.88961
G1 X168.94 Y50.26 E40.92592
G1 X168.99 Y51.40 E41.09694
G1 X169.00 Y51.58 E41.12457
G1 X169.00 Y114.60 E50.57652
G1 X163.89 Y114.60 E51.34302
G1 X164.39 Y115.05 E51.44430
G1 X165.16 Y115.89 E51.61512
G1 X165.33 Y116.08 E51.65355
G1 X166.02 Y116.97 E51.82228
G1 X166.18 Y117.18 E51.86098
G1 X166.79 Y118.14 E52.03263
G1 X166.79 Y118.14 E52.03278
G1 X166.93 Y118.36 E52.07110
G1 X167.44 Y119.36 E52.23990
G1 X167.57 Y119.59 E52.27888
G1 X168.00 Y120.64 E52.45037
G1 X168.00 Y120.64 E52.45052
G1 X168.10 Y120.87 E52.48810
G1 X168.44 Y121.95 E52.65694
G1 X168.44 Y121.95 E52.65709
G1 X168.52 Y122.20 E52.69628
G1 X168.77 Y123.32 E52.86853
G1 X168.82 Y123.57 E52.90678
G1 X168.97 Y124.68 E53.07486
G1 X169.00 Y124.94 E53.11406
G1 X169.05 Y126.08 E53.28523
G1 X169.06 Y126.26 E53.31285
G1 X169.06 Y157.84 E58.05030
G1 X165.36 Y157.84 E58.60560
G1 X165.36 Y167.04 E59.98560
G1 X169.06 Y167.04 E60.54090
G1 X169.06 Y189.27 E63.87540
G1 X161.46 Y189.27 E65.01555
G1 X161.24 Y185.79 E65.53862
G1 X161.19 Y185.56 E65.57395
G1 X161.12 Y185.34 E65.60910
G1 X161.01 Y185.12 E65.64539
G1 X160.89 Y184.94 E65.67751
G1 X160.73 Y184.76 E65.71440
G1 X160.55 Y184.60 E65.74980
G1 X160.36 Y184.48 E65.78462
G1 X160.14 Y184.37 E65.82138
G1 X159.91 Y184.29 E65.85687
G1 X159.69 Y184.25 E65.89023
G1 X159.46 Y184.23 E65.92555
G1 X159.24 Y184.25 E65.95891
G1 X159.00 Y184.29 E65.99471
G1 X158.77 Y184.37 E66.03195
G1 X158.56 Y184.47 E66.06610
G1 X158.36 Y184.61 E66.10262
G1 X158.19 Y184.76 E66.13601
G1 X158.04 Y184.93 E66.17013
G1 X157.91 Y185.13 E66.20657
G1 X157.81 Y185.34 E66.24139
G1 X157.73 Y185.56 E66.27701
G1 X157.69 Y185.79 E66.31187
G1 X157.66 Y186.18 E66.37094
G1 X157.43 Y189.27 E66.83562
G1 X113.38 Y189.27 E73.44222
G1 X113.13 Y189.25 E73.47984
G1 X112.31 Y189.15 E73.60420
G1 X111.88 Y188.98 E73.67420
G1 X111.11 Y188.66 E73.79760
G1 X110.74 Y188.37 E73.86883
G1 X110.13 Y187.90 E73.98404
G1 X109.62 Y187.23 E74.11050
G1 X109.35 Y186.85 E74.18045
G1 X109.07 Y186.18 E74.28946
G1 X108.89 Y185.74 E74.36052
G1 X108.80 Y185.01 E74.47107
G1 X108.76 Y184.77 E74.50749
G1 X108.76 Y163.05 E77.76639
G1 X102.28 Y157.92 E79.00535
G1 X94.59 Y157.92 E80.15915
G1 X88.11 Y163.05 E81.39810
G1 X88.11 Y184.73 E84.65100
G1 X88.03 Y185.33 E84.74100
G1 X87.96 Y185.79 E84.81187
G1 X87.67 Y186.48 E84.92377
G1 X87.51 Y186.90 E84.99154
G1 X87.02 Y187.53 E85.11029
G1 X86.74 Y187.91 E85.18196
G1 X86.33 Y188.22 E85.25861
G1 X85.75 Y188.66 E85.36740
G1 X85.32 Y188.84 E85.43740
G1 X84.60 Y189.14 E85.55510
G1 X83.57 Y189.27 E85.70988
G1 X72.56 Y189.27 E87.36198
G1 X72.34 Y185.79 E87.88505
G1 X72.29 Y185.56 E87.92114
G1 X72.22 Y185.34 E87.95473
G1 X72.11 Y185.12 E87.99182
G1 X71.98 Y184.94 E88.02556
G1 X71.83 Y184.76 E88.06043
G1 X71.65 Y184.60 E88.09689
G1 X71.45 Y184.47 E88.13151
G1 X71.24 Y184.37 E88.16699
G1 X71.03 Y184.30 E88.20072
G1 X70.79 Y184.25 E88.23714
G1 X70.56 Y184.23 E88.27216
G1 X70.32 Y184.25 E88.30824
G1 X70.11 Y184.29 E88.34095
G1 X69.88 Y184.37 E88.37738
G1 X69.66 Y184.47 E88.41300
G1 X69.47 Y184.60 E88.44758
G1 X69.29 Y184.76 E88.48277
G1 X69.14 Y184.94 E88.51827
G1 X69.01 Y185.13 E88.55301
G1 X68.91 Y185.34 E88.58830
G1 X68.83 Y185.56 E88.62392
G1 X68.78 Y185.79 E88.65819
G1 X68.76 Y186.18 E88.71771
G1 X68.53 Y189.27 E89.18239
G1 X60.96 Y189.27 E90.31729
G1 X60.96 Y126.26 E99.76879
G1 X61.01 Y125.19 E99.92928
G1 X61.02 Y124.94 E99.96743
G1 X61.17 Y123.81 E100.13899
G1 X61.20 Y123.56 E100.17698
G1 X61.45 Y122.45 E100.34661
G1 X61.50 Y122.21 E100.38395
G1 X61.84 Y121.11 E100.55640
G1 X61.92 Y120.87 E100.59454
G1 X62.36 Y119.82 E100.76469
G1 X62.45 Y119.59 E100.80274
G1 X62.98 Y118.58 E100.97369
G1 X63.10 Y118.35 E101.01160
G1 X63.71 Y117.39 E101.18175
G1 X63.84 Y117.18 E101.21965
G1 X64.54 Y116.28 E101.39105
G1 X64.69 Y116.07 E101.42943
G1 X65.46 Y115.24 E101.59961
G1 X65.63 Y115.05 E101.63720
G1 X65.81 Y114.88 E101.67457
G1 X66.13 Y114.60 E101.73848
G10
G0 F9000 X64.90 Y109.84
;TYPE:WALL-INNER
G11
G1 F1200 X64.90 Y51.66 E110.46593
G1 X64.94 Y50.70 E110.61022
G1 X64.95 Y50.62 E110.62118
G1 X65.07 Y49.66 E110.76639
G1 X65.08 Y49.58 E110.77821
G1 X65.29 Y48.64 E110.92324
G1 X65.31 Y48.56 E110.93507
G1 X65.60 Y47.65 E111.07895
G1 X65.62 Y47.56 E111.09205
G1 X65.99 Y46.68 E111.23556
G1 X66.02 Y46.60 E111.24807
G1 X66.47 Y45.75 E111.39185
G1 X66.50 Y45.69 E111.40352
G1 X67.06 Y44.80 E111.56073
G1 X67.65 Y44.04 E111.70462
G1 X67.70 Y43.97 E111.71734
G1 X68.40 Y43.21 E111.87192
G1 X69.17 Y42.50 E112.03000
G1 X69.23 Y42.46 E112.04113
G1 X70.00 Y41.87 E112.18652
G1 X70.06 Y41.83 E112.19738
G1 X70.88 Y41.31 E112.34219
G1 X71.79 Y40.83 E112.49731
G1 X71.87 Y40.80 E112.51015
G1 X72.77 Y40.42 E112.65595
G1 X73.75 Y40.12 E112.81070
G1 X74.77 Y39.89 E112.96712
G1 X74.85 Y39.88 E112.97921
G1 X75.81 Y39.75 E113.12415
G1 X75.89 Y39.75 E113.13541
G1 X76.86 Y39.71 E113.28195
G1 X153.03 Y39.71 E124.70655
G1 X153.14 Y39.71 E124.72306
G1 X154.09 Y39.75 E124.86614
G1 X154.17 Y39.76 E124.87840
G1 X155.13 Y39.89 E125.02409
G1 X156.15 Y40.12 E125.18036
G1 X157.13 Y40.42 E125.33420
G1 X157.21 Y40.46 E125.34780
G1 X158.11 Y40.83 E125.49307
G1 X159.03 Y41.31 E125.64852
G1 X159.09 Y41.35 E125.66059
G1 X159.90 Y41.86 E125.80410
G1 X159.97 Y41.91 E125.81662
G1 X160.73 Y42.50 E125.96147
G1 X161.51 Y43.21 E126.11912
G1 X162.20 Y43.97 E126.27296
G1 X162.79 Y44.74 E126.41910
G1 X162.84 Y44.80 E126.43011
G1 X163.41 Y45.69 E126.58819
G1 X163.85 Y46.54 E126.73156
G1 X163.88 Y46.61 E126.74357
G1 X164.25 Y47.50 E126.88804
G1 X164.28 Y47.58 E126.90060
G1 X164.57 Y48.49 E127.04445
G1 X164.59 Y48.56 E127.05626
G1 X164.80 Y49.50 E127.20041
G1 X164.82 Y49.57 E127.21100
G1 X164.95 Y50.54 E127.35729
G1 X164.96 Y50.62 E127.36926
G1 X165.00 Y51.58 E127.51339
G1 X165.00 Y51.67 E127.52690
G1 X165.00 Y109.84 E136.25270
G1 X164.80 Y109.23 E136.34866
G1 X164.76 Y109.12 E136.36598
G1 X164.48 Y108.55 E136.46211
G1 X164.42 Y108.45 E136.47955
G1 X164.07 Y107.91 E136.57603
G1 X164.00 Y107.81 E136.59342
G1 X163.50 Y107.25 E136.70704
G1 X162.93 Y106.75 E136.82077
G1 X162.84 Y106.68 E136.83795
G1 X162.30 Y106.32 E136.93451
G1 X162.20 Y106.27 E136.95175
G1 X161.62 Y105.99 E137.04835
G1 X160.90 Y105.74 E137.16272
G1 X160.78 Y105.72 E137.18043
G1 X160.16 Y105.60 E137.27604
G1 X160.04 Y105.59 E137.29348
G1 X159.41 Y105.55 E137.38923
G1 X159.29 Y105.56 E137.40653
G1 X158.65 Y105.60 E137.50273
G1 X158.54 Y105.62 E137.51997
G1 X157.90 Y105.75 E137.61726
G1 X157.18 Y105.99 E137.73082
G1 X157.08 Y106.04 E137.74806
G1 X156.50 Y106.32 E137.84472
G1 X156.41 Y106.39 E137.86170
G1 X155.87 Y106.75 E137.95859
G1 X155.30 Y107.25 E138.07221
G1 X154.80 Y107.82 E138.18604
G1 X154.44 Y108.35 E138.28260
G1 X154.38 Y108.45 E138.29978
G1 X154.10 Y109.02 E138.39571
G1 X154.04 Y109.13 E138.41349
G1 X153.84 Y109.73 E138.50912
G1 X153.80 Y109.84 E138.52691
G1 X153.65 Y110.59 E138.64131
G1 X113.50 Y110.60 E144.66366
G1 X113.25 Y110.56 E144.70134
G1 X113.08 Y110.49 E144.73006
G1 X112.93 Y110.37 E144.75859
G1 X112.81 Y110.22 E144.78779
G1 X112.74 Y110.04 E144.81650
G1 X112.70 Y109.79 E144.85509
G1 X112.70 Y106.45 E145.35579
G1 X112.65 Y106.04 E145.41734
G1 X112.63 Y105.91 E145.43813
G1 X112.46 Y105.50 E145.50437
G1 X112.41 Y105.37 E145.52490
G1 X112.13 Y105.01 E145.59313
G1 X112.05 Y104.90 E145.61392
G1 X111.94 Y104.82 E145.63408
G1 X111.58 Y104.54 E145.70326
G1 X111.45 Y104.49 E145.72274
G1 X111.04 Y104.32 E145.79046
G1 X110.90 Y104.30 E145.81103
G1 X110.50 Y104.25 E145.87141
G1 X101.74 Y104.25 E147.18631
G1 X101.72 Y104.10 E147.20873
G1 X101.44 Y103.42 E147.31801
G1 X101.37 Y103.27 E147.34317
G1 X100.82 Y102.55 E147.47883
G1 X100.69 Y102.45 E147.50397
G1 X100.42 Y102.24 E147.55468
G1 X151.60 Y102.27 E155.23183
G1 X151.60 Y54.21 E162.44083
G1 X78.64 Y54.21 E173.38573
G1 X78.57 Y54.21 E173.39609
G1 X78.13 Y54.24 E173.46239
G1 X78.04 Y54.26 E173.47598
G1 X77.61 Y54.34 E173.54158
G1 X77.52 Y54.37 E173.55534
G1 X77.10 Y54.52 E173.62208
G1 X77.02 Y54.55 E173.63530
G1 X76.63 Y54.75 E173.70084
G1 X76.55 Y54.80 E173.71448
G1 X76.19 Y55.04 E173.78055
G1 X75.79 Y55.39 E173.86006
G1 X75.44 Y55.79 E173.93968
G1 X75.28 Y56.03 E173.98369
G1 X75.19 Y56.16 E174.00728
G1 X75.15 Y56.23 E174.01851
G1 X74.95 Y56.62 E174.08506
G1 X74.91 Y56.70 E174.09767
G1 X74.74 Y57.21 E174.17817
G1 X74.66 Y57.63 E174.24253
G1 X74.64 Y57.72 E174.25710
G1 X74.61 Y58.16 E174.32279
G1 X74.60 Y58.23 E174.33317
G1 X74.60 Y78.11 E177.31517
G1 X74.60 Y78.46 E177.36707
G1 X74.60 Y78.55 E177.38132
G1 X74.65 Y78.96 E177.44343
G1 X74.66 Y79.05 E177.45658
G1 X74.76 Y79.44 E177.51737
G1 X74.78 Y79.53 E177.53073
G1 X74.93 Y79.91 E177.59206
G1 X74.97 Y79.99 E177.60552
G1 X75.17 Y80.35 E177.66684
G1 X75.21 Y80.42 E177.68014
G1 X75.50 Y80.82 E177.75409
G1 X75.79 Y81.11 E177.81455
G1 X75.85 Y81.17 E177.82877
G1 X75.93 Y81.23 E177.84278
G1 X76.24 Y81.48 E177.90334
G1 X76.32 Y81.53 E177.91630
G1 X76.67 Y81.74 E177.97812
G1 X76.75 Y81.77 E177.99077
G1 X77.13 Y81.93 E178.05293
G1 X77.21 Y81.95 E178.06533
G1 X77.40 Y82.01 E178.09525
G1 X77.40 Y102.23 E181.12945
G1 X96.34 Y102.24 E183.96940
G1 X95.93 Y102.55 E184.04579
G1 X95.38 Y103.27 E184.18124
G1 X95.10 Y103.95 E184.29119
G1 X95.04 Y104.10 E184.31682
G1 X95.02 Y104.25 E184.33831
G1 X86.25 Y104.25 E185.65321
G1 X86.17 Y104.26 E185.66653
G1 X85.73 Y104.32 E185.73298
G1 X85.60 Y104.37 E185.75339
G1 X85.18 Y104.54 E185.82153
G1 X85.07 Y104.62 E185.84232
G1 X84.71 Y104.90 E185.91085
G1 X84.43 Y105.26 E185.97886
G1 X84.35 Y105.37 E185.99986
G1 X84.17 Y105.79 E186.06705
G1 X84.12 Y105.92 E186.08778
G1 X84.06 Y106.36 E186.15511
G1 X84.05 Y106.44 E186.16725
G1 X84.05 Y109.80 E186.67080
G1 X84.02 Y110.04 E186.70724
G1 X83.95 Y110.22 E186.73644
G1 X83.83 Y110.37 E186.76542
G1 X83.68 Y110.49 E186.79440
G1 X83.50 Y110.56 E186.82379
G1 X83.25 Y110.60 E186.86085
G1 X76.25 Y110.60 E187.91055
G1 X76.25 Y110.59 E187.91206
G1 X76.10 Y109.85 E188.02523
G1 X75.90 Y109.23 E188.12214
G1 X75.86 Y109.12 E188.13945
G1 X75.58 Y108.55 E188.23558
G1 X75.52 Y108.45 E188.25302
G1 X75.17 Y107.91 E188.34950
G1 X75.10 Y107.81 E188.36689
G1 X74.60 Y107.25 E188.48051
G1 X74.03 Y106.75 E188.59424
G1 X73.94 Y106.68 E188.61143
G1 X73.40 Y106.32 E188.70799
G1 X73.30 Y106.27 E188.72523
G1 X72.72 Y105.99 E188.82183
G1 X72.00 Y105.74 E188.93619
G1 X71.88 Y105.72 E188.95390
G1 X71.26 Y105.60 E189.04951
G1 X71.14 Y105.59 E189.06695
G1 X70.50 Y105.55 E189.16286
G1 X70.39 Y105.56 E189.18015
G1 X69.75 Y105.60 E189.27621
G1 X69.64 Y105.62 E189.29345
G1 X69.00 Y105.75 E189.39073
G1 X68.28 Y105.99 E189.50429
G1 X68.18 Y106.04 E189.52153
G1 X67.60 Y106.32 E189.61820
G1 X67.51 Y106.39 E189.63517
G1 X66.97 Y106.75 E189.73206
G1 X66.40 Y107.25 E189.84568
G1 X65.90 Y107.82 E189.95951
G1 X65.54 Y108.35 E190.05607
G1 X65.48 Y108.45 E190.07326
G1 X65.20 Y109.02 E190.16919
G1 X65.14 Y109.13 E190.18696
G1 X64.94 Y109.73 E190.28259
G1 X64.90 Y109.84 E190.29991
G0 F9000 X66.44 Y107.28
G0 X69.02 Y105.79
G0 X71.99 Y105.79
G0 X74.57 Y107.28
G0 X79.16 Y106.98
G1 F1200 X79.30 Y107.30 E190.35228
G1 X79.34 Y107.42 E190.37167
G1 X79.56 Y107.71 E190.42612
G1 X79.64 Y107.81 E190.44514
G1 X79.74 Y107.89 E190.46353
G1 X80.02 Y108.10 E190.51715
G1 X80.14 Y108.15 E190.53609
G1 X80.48 Y108.29 E190.59158
G1 X80.62 Y108.31 E190.61196
G1 X80.94 Y108.35 E190.66128
G1 X81.07 Y108.34 E190.68043
G1 X81.44 Y108.29 E190.73597
G1 X81.55 Y108.24 E190.75452
G1 X81.88 Y108.10 E190.80826
G1 X81.98 Y108.03 E190.82707
G1 X82.27 Y107.81 E190.88089
G1 X82.48 Y107.53 E190.93343
G1 X82.56 Y107.43 E190.95299
G1 X82.70 Y107.09 E191.00731
G1 X82.75 Y106.97 E191.02670
G1 X82.79 Y106.63 E191.07903
G1 X82.81 Y106.50 E191.09842
G1 X82.76 Y106.14 E191.15258
G1 X82.75 Y106.01 E191.17195
G1 X82.61 Y105.69 E191.22521
G1 X82.56 Y105.57 E191.24418
G1 X82.34 Y105.28 E191.29843
G1 X82.26 Y105.18 E191.31733
G1 X82.17 Y105.11 E191.33572
G1 X81.88 Y104.89 E191.38934
G1 X81.77 Y104.84 E191.40828
G1 X81.42 Y104.70 E191.46377
G1 X81.29 Y104.69 E191.48415
G1 X80.96 Y104.64 E191.53349
G1 X80.83 Y104.65 E191.55309
G1 X80.47 Y104.70 E191.60835
G1 X80.36 Y104.75 E191.62677
G1 X80.02 Y104.89 E191.68050
G1 X79.92 Y104.97 E191.69931
G1 X79.64 Y105.18 E191.75302
G1 X79.43 Y105.46 E191.80543
G1 X79.35 Y105.56 E191.82518
G1 X79.21 Y105.90 E191.87972
G1 X79.16 Y106.02 E191.89883
G1 X79.11 Y106.37 E191.95148
G1 X79.09 Y106.50 E191.97102
G1 X79.14 Y106.85 E192.02520
G1 X79.16 Y106.98 E192.04442
G0 F9000 X77.51 Y102.12
G0 X74.65 Y78.11
G0 X74.79 Y57.22
G0 X75.82 Y55.43
G0 X76.51 Y50.31
G1 F1200 X94.61 Y50.31 E194.75972
G1 X94.61 Y50.01 E194.80472
G1 X104.31 Y50.01 E196.25987
G1 X104.31 Y40.21 E197.72972
G1 X94.51 Y40.21 E199.19987
G1 X94.51 Y45.71 E200.02487
G1 X76.51 Y45.71 E202.72472
G1 X76.51 Y49.25 E203.25677
G1 X76.51 Y50.31 E203.41472
G0 F9000 X74.17 Y48.47
G1 F1200 X74.25 Y48.37 E203.43429
G1 X74.39 Y48.03 E203.48861
G1 X74.44 Y47.91 E203.50786
G1 X74.48 Y47.56 E203.56051
G1 X74.50 Y47.44 E203.58005
G1 X74.45 Y47.08 E203.63438
G1 X74.44 Y46.95 E203.65360
G1 X74.30 Y46.63 E203.70597
G1 X74.25 Y46.51 E203.72522
G1 X74.03 Y46.22 E203.77949
G1 X73.95 Y46.12 E203.79872
G1 X73.86 Y46.05 E203.81711
G1 X73.57 Y45.83 E203.87073
G1 X73.46 Y45.78 E203.88967
G1 X73.12 Y45.64 E203.94516
G1 X73.00 Y45.62 E203.96282
G1 X72.65 Y45.58 E204.01516
G1 X72.53 Y45.59 E204.03416
