;FLAVOR:UltiGCode
;TIME:14413     
;MATERIAL:28654     
;MATERIAL2:0         

;Layer count: 23
;LAYER:0
M107
G0 F9000 X88.07 Y108.26 Z0.30
G0 X88.07 Y108.26
;TYPE:SKIRT
G11
G1 F1200 X88.07 Y110.06 E0.27120
G1 X87.99 Y110.66 E0.36134
G1 X87.92 Y111.13 E0.43205
G1 X87.64 Y111.81 E0.54328
G1 X87.47 Y112.24 E0.61239
G1 X86.98 Y112.87 E0.73186
G1 X86.70 Y113.25 E0.80236
G1 X86.29 Y113.55 E0.87901
G1 X85.69 Y114.02 E0.99323
G1 X85.24 Y114.19 E1.06504
G1 X84.56 Y114.47 E1.17532
G1 X84.09 Y114.53 E1.24567
G1 X83.53 Y114.61 E1.33070
G1 X80.59 Y114.61 E1.77230
G1 X80.59 Y120.99 E2.73035
G1 X93.39 Y120.99 E4.65035
G1 X93.39 Y110.39 E6.24035
G1 X108.77 Y110.39 E8.54675
G1 X108.76 Y110.36 E8.55250
G1 X108.72 Y110.11 E8.59045
G1 X108.72 Y108.26 E8.86780
G1 X88.07 Y108.26 E11.96530
G0 F9000 X66.15 Y114.61
G1 F1200 X60.92 Y114.61 E12.74905
G1 X60.92 Y51.60 E22.20055
G1 X60.97 Y50.53 E22.36090
G1 X60.98 Y50.28 E22.39874
G1 X61.13 Y49.14 E22.57045
G1 X61.16 Y48.89 E22.60874
G1 X61.41 Y47.78 E22.77837
G1 X61.46 Y47.54 E22.81585
G1 X61.81 Y46.45 E22.98806
G1 X61.88 Y46.20 E23.02601
G1 X62.32 Y45.16 E23.19630
G1 X62.41 Y44.92 E23.23449
G1 X62.94 Y43.91 E23.40544
G1 X63.06 Y43.69 E23.44341
G1 X63.67 Y42.73 E23.61344
G1 X63.80 Y42.52 E23.65147
G1 X64.50 Y41.61 E23.82296
G1 X64.65 Y41.41 E23.86083
G1 X65.42 Y40.57 E24.03069
G1 X65.59 Y40.38 E24.06892
G1 X65.78 Y40.22 E24.10671
G1 X66.61 Y39.45 E24.27712
G1 X66.81 Y39.30 E24.31477
G1 X67.72 Y38.60 E24.48668
G1 X67.93 Y38.46 E24.52397
G1 X67.93 Y38.46 E24.52412
G1 X68.89 Y37.85 E24.69501
G1 X69.12 Y37.73 E24.73305
G1 X70.13 Y37.21 E24.90441
G1 X70.37 Y37.11 E24.94282
G1 X71.42 Y36.67 E25.11297
G1 X71.66 Y36.60 E25.15040
G1 X72.74 Y36.26 E25.32123
G1 X72.99 Y36.20 E25.35919
G1 X74.11 Y35.95 E25.53096
G1 X74.36 Y35.92 E25.56953
G1 X74.36 Y35.92 E25.56968
G1 X75.49 Y35.77 E25.74109
G1 X75.74 Y35.76 E25.77802
G1 X76.80 Y35.72 E25.93703
G1 X153.13 Y35.72 E37.38683
G1 X153.31 Y35.72 E37.41415
G1 X154.46 Y35.77 E37.58591
G1 X154.71 Y35.81 E37.62357
G1 X155.84 Y35.95 E37.79543
G1 X156.09 Y36.01 E37.83353
G1 X157.20 Y36.26 E38.00407
G1 X157.44 Y36.33 E38.04183
G1 X158.53 Y36.67 E38.21248
G1 X158.76 Y36.77 E38.25028
G1 X159.81 Y37.21 E38.42176
G1 X160.04 Y37.32 E38.45960
G1 X161.05 Y37.85 E38.63015
G1 X161.26 Y37.98 E38.66789
G1 X162.22 Y38.60 E38.83975
G1 X162.42 Y38.75 E38.87707
G1 X163.32 Y39.45 E39.04769
G1 X163.51 Y39.61 E39.08539
G1 X164.35 Y40.39 E39.25674
G1 X165.12 Y41.23 E39.42788
G1 X165.29 Y41.41 E39.46568
G1 X165.98 Y42.31 E39.63471
G1 X166.14 Y42.51 E39.67353
G1 X166.75 Y43.47 E39.84443
G1 X166.89 Y43.69 E39.88275
G1 X167.41 Y44.69 E40.05195
G1 X167.53 Y44.92 E40.09094
G1 X167.96 Y45.97 E40.26122
G1 X168.06 Y46.21 E40.30008
G1 X168.40 Y47.28 E40.46883
G1 X168.48 Y47.53 E40.50801
G1 X168.73 Y48.65 E40.68026
G1 X168.78 Y48.90 E40.71866
G1 X168.93 Y50.03 E40.88961
G1 X168.96 Y50.27 E40.92592
G1 X169.01 Y51.41 E41.09694
G1 X169.02 Y51.59 E41.12457
G1 X169.02 Y114.61 E50.57652
G1 X163.91 Y114.61 E51.34302
G1 X164.41 Y115.06 E51.44430
G1 X165.18 Y115.90 E51.61512
G1 X165.35 Y116.09 E51.65355
G1 X166.04 Y116.98 E51.82228
G1 X166.19 Y117.19 E51.86098
G1 X166.81 Y118.15 E52.03263
G1 X166.81 Y118.15 E52.03278
G1 X166.95 Y118.37 E52.07110
G1 X167.46 Y119.37 E52.23990
G1 X167.59 Y119.60 E52.27888
G1 X168.02 Y120.65 E52.45037
G1 X168.02 Y120.65 E52.45052
G1 X168.12 Y120.88 E52.48810
G1 X168.46 Y121.96 E52.65694
G1 X168.46 Y121.96 E52.65709
G1 X168.54 Y122.21 E52.69628
G1 X168.78 Y123.33 E52.86853
G1 X168.84 Y123.58 E52.90678
G1 X168.99 Y124.69 E53.07486
G1 X169.02 Y124.95 E53.11406
G1 X169.07 Y126.09 E53.28523
G1 X169.08 Y126.27 E53.31285
G1 X169.08 Y157.85 E58.05030
G1 X165.38 Y157.85 E58.60560
G1 X165.38 Y167.05 E59.98560
G1 X169.08 Y167.05 E60.54090
G1 X169.08 Y189.28 E63.87540
G1 X161.48 Y189.28 E65.01555
G1 X161.25 Y185.80 E65.53862
G1 X161.21 Y185.57 E65.57472
G1 X161.14 Y185.35 E65.60830
G1 X161.03 Y185.13 E65.64540
G1 X160.90 Y184.95 E65.67914
G1 X160.75 Y184.77 E65.71401
G1 X160.57 Y184.61 E65.75047
G1 X160.37 Y184.48 E65.78508
G1 X160.16 Y184.38 E65.82057
G1 X159.95 Y184.31 E65.85430
G1 X159.71 Y184.26 E65.89071
G1 X159.48 Y184.24 E65.92574
G1 X159.24 Y184.26 E65.96182
G1 X159.02 Y184.30 E65.99453
G1 X158.79 Y184.38 E66.03096
G1 X158.58 Y184.48 E66.06658
G1 X158.39 Y184.61 E66.10115
G1 X158.21 Y184.77 E66.13656
G1 X158.06 Y184.94 E66.17185
G1 X157.93 Y185.14 E66.20659
G1 X157.82 Y185.35 E66.24187
G1 X157.75 Y185.57 E66.27749
G1 X157.70 Y185.80 E66.31177
G1 X157.68 Y186.19 E66.37128
G1 X157.44 Y189.28 E66.83596
G1 X113.32 Y189.28 E73.45531
G1 X112.29 Y189.15 E73.61069
G1 X111.86 Y188.97 E73.68122
G1 X111.17 Y188.68 E73.79326
G1 X110.79 Y188.40 E73.86328
G1 X110.15 Y187.91 E73.98449
G1 X109.67 Y187.28 E74.10389
G1 X109.39 Y186.91 E74.17373
G1 X109.09 Y186.19 E74.28987
G1 X108.91 Y185.75 E74.36093
G1 X108.81 Y185.00 E74.47405
G1 X108.78 Y184.78 E74.50791
G1 X108.78 Y163.06 E77.76681
G1 X108.66 Y162.96 E77.79051
G1 X108.66 Y187.38 E81.45411
G1 X93.03 Y187.38 E83.79771
G1 X92.78 Y187.35 E83.83599
G1 X92.04 Y187.25 E83.94783
G1 X91.61 Y187.08 E84.01707
G1 X90.88 Y186.78 E84.13544
G1 X90.50 Y186.50 E84.20600
G1 X89.86 Y186.01 E84.32727
G1 X89.39 Y185.39 E84.44356
G1 X89.11 Y185.03 E84.51220
G1 X88.80 Y184.29 E84.63210
G1 X88.62 Y183.85 E84.70316
G1 X88.53 Y183.13 E84.81280
G1 X88.49 Y182.88 E84.85014
G1 X88.49 Y171.82 E86.50884
G1 X91.61 Y171.63 E86.97697
G1 X91.98 Y171.61 E87.03350
G1 X92.20 Y171.56 E87.06621
G1 X92.43 Y171.49 E87.10264
G1 X92.64 Y171.38 E87.13779
G1 X92.84 Y171.25 E87.17357
G1 X93.01 Y171.10 E87.20801
G1 X93.17 Y170.92 E87.24363
G1 X93.29 Y170.73 E87.27837
G1 X93.40 Y170.52 E87.31318
G1 X93.47 Y170.29 E87.34914
G1 X93.52 Y170.06 E87.38370
G1 X93.53 Y169.82 E87.41977
G1 X93.52 Y169.61 E87.45254
G1 X93.47 Y169.37 E87.48955
G1 X93.40 Y169.15 E87.52361
G1 X93.29 Y168.93 E87.56003
G1 X93.17 Y168.75 E87.59377
G1 X93.01 Y168.57 E87.62906
G1 X92.83 Y168.41 E87.66499
G1 X92.64 Y168.28 E87.69915
G1 X92.43 Y168.18 E87.73537
G1 X92.21 Y168.10 E87.76943
G1 X91.97 Y168.06 E87.80567
G1 X88.49 Y167.82 E88.32885
G1 X88.49 Y162.77 E89.08725
G1 X88.13 Y163.06 E89.15709
G1 X88.13 Y184.74 E92.40999
G1 X88.05 Y185.34 E92.49998
G1 X87.98 Y185.80 E92.57086
G1 X87.69 Y186.49 E92.68276
G1 X87.53 Y186.91 E92.75053
G1 X87.04 Y187.54 E92.86927
G1 X86.76 Y187.92 E92.94094
G1 X86.35 Y188.23 E93.01760
G1 X85.77 Y188.67 E93.12638
G1 X85.34 Y188.85 E93.19639
G1 X84.61 Y189.15 E93.31408
G1 X83.59 Y189.28 E93.46886
G1 X72.58 Y189.28 E95.12096
G1 X72.36 Y185.80 E95.64403
G1 X72.31 Y185.57 E95.68013
G1 X72.24 Y185.35 E95.71371
G1 X72.13 Y185.13 E95.75081
G1 X72.00 Y184.95 E95.78455
G1 X71.85 Y184.77 E95.81941
G1 X71.67 Y184.61 E95.85588
G1 X71.47 Y184.48 E95.89049
G1 X71.26 Y184.38 E95.92598
G1 X71.05 Y184.31 E95.95970
G1 X70.81 Y184.26 E95.99612
G1 X70.58 Y184.24 E96.03114
G1 X70.34 Y184.26 E96.06722
G1 X70.12 Y184.30 E96.09994
G1 X69.89 Y184.38 E96.13637
G1 X69.68 Y184.48 E96.17199
G1 X69.49 Y184.61 E96.20656
G1 X69.31 Y184.77 E96.24196
G1 X69.16 Y184.94 E96.27725
G1 X69.03 Y185.14 E96.31199
G1 X68.92 Y185.35 E96.34728
G1 X68.85 Y185.57 E96.38290
G1 X68.80 Y185.80 E96.41717
G1 X68.78 Y186.19 E96.47669
G1 X68.55 Y189.28 E96.94137
G1 X60.98 Y189.28 E98.07627
G1 X60.98 Y126.27 E107.52777
G1 X61.02 Y125.20 E107.68827
G1 X61.04 Y124.95 E107.72641
G1 X61.19 Y123.82 E107.89797
G1 X61.22 Y123.56 E107.93597
G1 X61.47 Y122.46 E108.10559
G1 X61.52 Y122.22 E108.14293
G1 X61.86 Y121.12 E108.31538
G1 X61.94 Y120.88 E108.35352
G1 X62.38 Y119.83 E108.52367
G1 X62.47 Y119.60 E108.56172
G1 X63.00 Y118.59 E108.73267
G1 X63.12 Y118.36 E108.77058
G1 X63.73 Y117.41 E108.94073
G1 X63.86 Y117.19 E108.97864
G1 X64.56 Y116.28 E109.15004
G1 X64.71 Y116.08 E109.18841
G1 X65.48 Y115.25 E109.35859
G1 X65.65 Y115.06 E109.39618
G1 X65.83 Y114.89 E109.43355
G1 X66.15 Y114.61 E109.49746
G10
G0 F9000 X64.92 Y109.85
;TYPE:WALL-INNER
G11
G1 F1200 X64.92 Y51.67 E118.22491
G1 X64.96 Y50.70 E118.36920
G1 X64.97 Y50.63 E118.38016
G1 X65.09 Y49.67 E118.52538
G1 X65.10 Y49.59 E118.53719
G1 X65.31 Y48.65 E118.68222
G1 X65.33 Y48.57 E118.69405
G1 X65.62 Y47.66 E118.83794
G1 X65.64 Y47.58 E118.85103
G1 X66.01 Y46.69 E118.99455
G1 X66.04 Y46.61 E119.00705
G1 X66.48 Y45.76 E119.15083
G1 X66.52 Y45.70 E119.16250
G1 X67.08 Y44.81 E119.31971
G1 X67.67 Y44.05 E119.46360
G1 X67.72 Y43.98 E119.47632
G1 X68.42 Y43.22 E119.63090
G1 X69.19 Y42.51 E119.78899
G1 X69.25 Y42.47 E119.80012
G1 X70.02 Y41.88 E119.94551
G1 X70.08 Y41.84 E119.95637
G1 X70.90 Y41.32 E120.10117
G1 X71.81 Y40.84 E120.25629
G1 X71.89 Y40.81 E120.26913
G1 X72.79 Y40.44 E120.41493
G1 X73.77 Y40.12 E120.56968
G1 X74.79 Y39.90 E120.72610
G1 X74.87 Y39.89 E120.73819
G1 X75.83 Y39.76 E120.88313
G1 X75.91 Y39.76 E120.89439
G1 X76.88 Y39.72 E121.04093
G1 X153.04 Y39.72 E132.46553
G1 X153.16 Y39.72 E132.48204
G1 X154.11 Y39.76 E132.62513
G1 X154.19 Y39.77 E132.63739
G1 X155.15 Y39.90 E132.78307
G1 X156.17 Y40.12 E132.93934
G1 X157.15 Y40.43 E133.09319
G1 X157.23 Y40.47 E133.10678
G1 X158.13 Y40.84 E133.25205
G1 X159.04 Y41.32 E133.40750
G1 X159.11 Y41.36 E133.41957
G1 X159.92 Y41.87 E133.56309
G1 X159.99 Y41.92 E133.57560
G1 X160.75 Y42.51 E133.72045
G1 X161.53 Y43.22 E133.87811
G1 X162.22 Y43.98 E134.03194
G1 X162.81 Y44.75 E134.17808
G1 X162.86 Y44.81 E134.18909
G1 X163.42 Y45.70 E134.34718
G1 X163.87 Y46.55 E134.49055
G1 X163.90 Y46.62 E134.50256
G1 X164.27 Y47.51 E134.64702
G1 X164.30 Y47.59 E134.65959
G1 X164.59 Y48.50 E134.80343
G1 X164.61 Y48.58 E134.81524
G1 X164.82 Y49.51 E134.95939
G1 X164.84 Y49.58 E134.96998
G1 X164.97 Y50.55 E135.11628
G1 X164.98 Y50.63 E135.12824
G1 X165.02 Y51.59 E135.27237
G1 X165.02 Y51.68 E135.28589
G1 X165.02 Y109.85 E144.01169
G1 X164.82 Y109.24 E144.10765
G1 X164.78 Y109.14 E144.12496
G1 X164.50 Y108.56 E144.22109
G1 X164.44 Y108.46 E144.23853
G1 X164.09 Y107.92 E144.33501
G1 X164.02 Y107.83 E144.35240
G1 X163.52 Y107.26 E144.46602
G1 X162.95 Y106.76 E144.57975
G1 X162.86 Y106.69 E144.59694
G1 X162.32 Y106.33 E144.69350
G1 X162.22 Y106.28 E144.71074
G1 X161.64 Y106.00 E144.80734
G1 X160.92 Y105.75 E144.92170
G1 X160.80 Y105.73 E144.93941
G1 X160.18 Y105.61 E145.03502
G1 X160.06 Y105.60 E145.05246
G1 X159.42 Y105.56 E145.14822
G1 X159.31 Y105.56 E145.16551
G1 X158.67 Y105.61 E145.26172
G1 X158.56 Y105.63 E145.27896
G1 X157.92 Y105.75 E145.37624
G1 X157.20 Y106.00 E145.48980
G1 X157.10 Y106.05 E145.50704
G1 X156.52 Y106.33 E145.60371
G1 X156.43 Y106.40 E145.62068
G1 X155.89 Y106.76 E145.71757
G1 X155.32 Y107.26 E145.83119
G1 X154.82 Y107.83 E145.94502
G1 X154.46 Y108.36 E146.04158
G1 X154.40 Y108.46 E146.05877
G1 X154.12 Y109.03 E146.15470
G1 X154.06 Y109.14 E146.17247
G1 X153.86 Y109.74 E146.26810
G1 X153.82 Y109.85 E146.28589
G1 X153.67 Y110.60 E146.40029
G1 X113.52 Y110.61 E152.42264
G1 X113.27 Y110.57 E152.46032
G1 X113.10 Y110.50 E152.48904
G1 X112.95 Y110.38 E152.51758
G1 X112.83 Y110.23 E152.54677
G1 X112.75 Y110.05 E152.57549
G1 X112.72 Y109.80 E152.61408
G1 X112.72 Y106.46 E153.11478
G1 X112.67 Y106.05 E153.17632
G1 X112.65 Y105.92 E153.19711
G1 X112.48 Y105.51 E153.26336
G1 X112.43 Y105.38 E153.28388
G1 X112.15 Y105.02 E153.35211
G1 X112.07 Y104.91 E153.37290
G1 X111.96 Y104.83 E153.39306
G1 X111.59 Y104.55 E153.46225
G1 X111.47 Y104.50 E153.48172
G1 X111.06 Y104.33 E153.54944
G1 X110.92 Y104.31 E153.57002
G1 X110.52 Y104.26 E153.63039
G1 X101.75 Y104.26 E154.94529
G1 X101.73 Y104.11 E154.96771
G1 X101.45 Y103.44 E155.07700
G1 X101.39 Y103.28 E155.10215
G1 X100.84 Y102.56 E155.23782
G1 X100.71 Y102.46 E155.26296
G1 X100.47 Y102.28 E155.30799
G1 X151.62 Y102.28 E162.98064
G1 X151.62 Y54.22 E170.18964
G1 X77.92 Y54.22 E181.24449
G1 X77.92 Y54.79 E181.33104
G1 X77.63 Y54.85 E181.37614
G1 X77.54 Y54.88 E181.38989
G1 X77.12 Y55.02 E181.45664
G1 X77.04 Y55.06 E181.46985
G1 X76.65 Y55.26 E181.53539
G1 X76.57 Y55.31 E181.54904
G1 X76.21 Y55.55 E181.61510
G1 X75.81 Y55.90 E181.69462
G1 X75.46 Y56.30 E181.77423
G1 X75.29 Y56.54 E181.81825
G1 X75.21 Y56.67 E181.84183
G1 X75.17 Y56.74 E181.85307
G1 X74.97 Y57.13 E181.91961
G1 X74.93 Y57.21 E181.93223
G1 X74.76 Y57.72 E182.01272
G1 X74.67 Y58.14 E182.07709
G1 X74.66 Y58.23 E182.09165
G1 X74.63 Y58.67 E182.15735
G1 X74.62 Y58.74 E182.16772
G1 X74.62 Y78.15 E185.07937
G1 X74.66 Y78.66 E185.15514
G1 X74.74 Y79.09 E185.22119
G1 X74.76 Y79.18 E185.23528
G1 X74.93 Y79.68 E185.31407
G1 X75.12 Y80.07 E185.38055
G1 X75.17 Y80.16 E185.39437
G1 X75.46 Y80.59 E185.47291
G1 X75.81 Y80.99 E185.55274
G1 X76.21 Y81.34 E185.63268
G1 X76.29 Y81.39 E185.64674
G1 X76.64 Y81.63 E185.71118
G1 X76.73 Y81.67 E185.72507
G1 X77.13 Y81.87 E185.79195
G1 X77.21 Y81.90 E185.80457
G1 X77.62 Y82.04 E185.87083
G1 X77.71 Y82.06 E185.88443
G1 X77.92 Y82.10 E185.91640
G1 X77.92 Y102.28 E188.94295
G1 X96.32 Y102.28 E191.70325
G1 X95.95 Y102.56 E191.77355
G1 X95.40 Y103.28 E191.90900
G1 X95.12 Y103.96 E192.01895
G1 X95.06 Y104.11 E192.04458
G1 X95.04 Y104.26 E192.06607
G1 X86.27 Y104.26 E193.38097
G1 X86.18 Y104.27 E193.39429
G1 X85.75 Y104.33 E193.46073
G1 X85.62 Y104.38 E193.48115
G1 X85.20 Y104.55 E193.54929
G1 X85.09 Y104.63 E193.57008
G1 X84.73 Y104.91 E193.63861
G1 X84.45 Y105.27 E193.70662
G1 X84.36 Y105.38 E193.72762
G1 X84.19 Y105.80 E193.79481
G1 X84.14 Y105.92 E193.81554
G1 X84.08 Y106.37 E193.88287
G1 X84.07 Y106.45 E193.89500
G1 X84.07 Y109.81 E194.39855
G1 X84.04 Y110.05 E194.43500
G1 X83.97 Y110.23 E194.46419
G1 X83.85 Y110.38 E194.49318
G1 X83.69 Y110.50 E194.52216
G1 X83.51 Y110.57 E194.55155
G1 X83.27 Y110.61 E194.58861
G1 X76.27 Y110.61 E195.63831
G1 X76.27 Y110.60 E195.63982
G1 X76.12 Y109.86 E195.75299
G1 X75.92 Y109.24 E195.84990
G1 X75.88 Y109.14 E195.86721
G1 X75.59 Y108.56 E195.96334
G1 X75.54 Y108.46 E195.98078
G1 X75.19 Y107.92 E196.07726
G1 X75.12 Y107.83 E196.09465
G1 X74.62 Y107.26 E196.20827
G1 X74.05 Y106.76 E196.32200
G1 X73.96 Y106.69 E196.33919
G1 X73.42 Y106.33 E196.43574
G1 X73.32 Y106.28 E196.45299
G1 X72.74 Y106.00 E196.54959
G1 X72.02 Y105.75 E196.66395
G1 X71.90 Y105.73 E196.68166
G1 X71.28 Y105.61 E196.77727
G1 X71.16 Y105.60 E196.79471
G1 X70.52 Y105.56 E196.89062
G1 X70.41 Y105.56 E196.90791
G1 X69.77 Y105.61 E197.00396
G1 X69.66 Y105.63 E197.02121
G1 X69.02 Y105.75 E197.11849
G1 X68.30 Y106.00 E197.23205
G1 X68.20 Y106.05 E197.24929
G1 X67.62 Y106.33 E197.34595
G1 X67.53 Y106.40 E197.36293
G1 X66.99 Y106.76 E197.45982
G1 X66.42 Y107.26 E197.57344
G1 X65.92 Y107.83 E197.68727
G1 X65.56 Y108.36 E197.78383
G1 X65.50 Y108.46 E197.80101
G1 X65.22 Y109.03 E197.89694
G1 X65.16 Y109.14 E197.91472
G1 X64.96 Y109.74 E198.01035
G1 X64.92 Y109.85 E198.02766
G0 F9000 X66.46 Y107.29
G0 X69.03 Y105.80
G0 X72.72 Y106.05
G0 X74.58 Y107.29
G0 X79.18 Y106.99
G1 F1200 X79.31 Y107.31 E198.08004
G1 X79.36 Y107.43 E198.09942
G1 X79.58 Y107.72 E198.15388
G1 X79.66 Y107.82 E198.17290
G1 X79.76 Y107.89 E198.19129
G1 X80.04 Y108.11 E198.24490
G1 X80.16 Y108.16 E198.26385
G1 X80.50 Y108.30 E198.31934
G1 X80.64 Y108.32 E198.33972
G1 X80.96 Y108.36 E198.38904
G1 X81.09 Y108.35 E198.40819
G1 X81.45 Y108.30 E198.46373
G1 X81.57 Y108.25 E198.48228
G1 X81.90 Y108.11 E198.53602
G1 X82.00 Y108.04 E198.55483
G1 X82.28 Y107.82 E198.60865
G1 X82.50 Y107.54 E198.66118
G1 X82.58 Y107.44 E198.68075
G1 X82.72 Y107.10 E198.73507
G1 X82.77 Y106.98 E198.75446
G1 X82.81 Y106.64 E198.80679
G1 X82.83 Y106.51 E198.82618
G1 X82.78 Y106.15 E198.88034
G1 X82.76 Y106.02 E198.89971
G1 X82.63 Y105.70 E198.95297
G1 X82.58 Y105.58 E198.97194
G1 X82.36 Y105.29 E199.02619
G1 X82.28 Y105.19 E199.04509
G1 X82.19 Y105.12 E199.06348
G1 X81.90 Y104.90 E199.11710
G1 X81.78 Y104.85 E199.13604
G1 X81.44 Y104.71 E199.19153
G1 X81.31 Y104.69 E199.21191
G1 X80.98 Y104.65 E199.26125
G1 X80.85 Y104.66 E199.28085
G1 X80.49 Y104.71 E199.33611
G1 X80.37 Y104.76 E199.35452
G1 X80.04 Y104.90 E199.40826
G1 X79.94 Y104.98 E199.42707
G1 X79.66 Y105.19 E199.48078
G1 X79.45 Y105.47 E199.53319
G1 X79.36 Y105.57 E199.55294
G1 X79.23 Y105.91 E199.60748
G1 X79.18 Y106.03 E199.62659
G1 X79.13 Y106.38 E199.67924
G1 X79.11 Y106.50 E199.69878
G1 X79.16 Y106.86 E199.75296
